flaticon/gastronomy/sorbet.svg

<svg xmlns="http://www.w3.org/2000/svg" width="32" height="32" viewBox="0 0 24 24">
    <path d="M16.097656 23.164062L8.140625 23.164062C7.910156 23.164062 7.722656 23.351562 7.722656 23.582031 7.722656 23.8125 7.910156 24 8.140625 24L16.097656 24C16.328125 24 16.515625 23.8125 16.515625 23.582031 16.515625 23.351562 16.328125 23.164062 16.097656 23.164062zM20.324219.835938C20.554688.808594 20.71875.601562 20.695312.375 20.667969.144531 20.460938-.0234375 20.230469.00390625L16.675781.394531C16.503906.414062 16.359375.539062 16.316406.707031L16.230469 1.050781C15.992188 1 15.746094.972656 15.492188.972656 14.296875.972656 13.203125 1.574219 12.5625 2.570312 12.128906 2.484375 11.691406 2.484375 11.257812 2.570312 10.617188 1.574219 9.523438.972656 8.328125.972656 8.3125.972656 8.296875.972656 8.285156.972656 8.269531.972656 8.253906.972656 8.238281.972656 6.355469.972656 4.824219 2.46875 4.824219 4.3125 4.824219 4.421875 4.832031 4.53125 4.84375 4.640625 3.886719 5.285156 3.304688 6.371094 3.304688 7.53125 3.304688 9.25 4.554688 10.679688 6.195312 10.964844 6.578125 11.636719 7.039062 12.070312 7.140625 12.160156 10.257812 15.484375 11.941406 17.765625 9.019531 21.335938 8.808594 21.59375 8.769531 21.941406 8.910156 22.246094 9.058594 22.554688 9.355469 22.742188 9.695312 22.742188L14.378906 22.742188C14.71875 22.742188 15.019531 22.554688 15.164062 22.246094 15.308594 21.941406 15.265625 21.59375 15.054688 21.335938 12.136719 17.765625 13.816406 15.484375 16.9375 12.160156 17.039062 12.066406 17.527344 11.605469 17.917969 10.898438 19.410156 10.503906 20.515625 9.144531 20.515625 7.53125 20.515625 6.929688 20.355469 6.351562 20.074219 5.839844 20.066406 5.820312 20.0625 5.800781 20.054688 5.78125 20.003906 5.699219 19.945312 5.617188 19.886719 5.539062 19.886719 5.535156 19.882812 5.53125 19.878906 5.527344 19.832031 5.460938 19.78125 5.402344 19.730469 5.339844 19.515625 5.074219 19.265625 4.835938 18.976562 4.640625 18.980469 4.578125 18.980469 4.519531 18.980469 4.460938 18.980469 3.085938 18.179688 1.898438 17.023438 1.328125L17.054688 1.195312zM16.371094 11.539062L16.339844 11.570312C13.621094 14.46875 10.808594 17.464844 14.40625 21.867188L14.378906 21.90625 9.695312 21.90625 9.667969 21.867188C13.269531 17.464844 10.457031 14.46875 7.738281 11.570312L7.707031 11.539062C7.703125 11.539062 7.472656 11.339844 7.214844 10.996094 7.234375 10.992188 7.25 10.988281 7.269531 10.984375 7.332031 10.976562 7.394531 10.960938 7.460938 10.949219 7.558594 10.929688 7.65625 10.910156 7.75 10.882812 7.816406 10.867188 7.878906 10.84375 7.941406 10.820312 8.03125 10.792969 8.117188 10.757812 8.203125 10.71875 8.265625 10.691406 8.328125 10.664062 8.386719 10.632812 8.46875 10.589844 8.550781 10.542969 8.628906 10.496094 8.6875 10.460938 8.742188 10.425781 8.800781 10.386719 8.875 10.332031 8.949219 10.273438 9.019531 10.214844 9.070312 10.171875 9.121094 10.132812 9.167969 10.085938 9.238281 10.019531 9.304688 9.949219 9.371094 9.878906 9.414062 9.832031 9.457031 9.785156 9.496094 9.738281 9.5625 9.65625 9.625 9.566406 9.683594 9.476562 9.714844 9.433594 9.746094 9.390625 9.773438 9.34375 9.855469 9.207031 9.933594 9.0625 9.996094 8.914062 11.125 9.65625 12.695312 9.65625 13.824219 8.914062 13.890625 9.066406 13.96875 9.214844 14.054688 9.359375 14.082031 9.402344 14.113281 9.445312 14.144531 9.488281 14.207031 9.582031 14.269531 9.675781 14.339844 9.761719 14.378906 9.808594 14.425781 9.851562 14.46875 9.898438 14.535156 9.972656 14.605469 10.046875 14.679688 10.113281 14.726562 10.160156 14.78125 10.199219 14.835938 10.242188 14.910156 10.300781 14.984375 10.363281 15.0625 10.417969 15.121094 10.457031 15.179688 10.488281 15.242188 10.523438 15.320312 10.574219 15.402344 10.621094 15.488281 10.664062 15.550781 10.695312 15.617188 10.71875 15.683594 10.746094 15.769531 10.78125 15.855469 10.816406 15.945312 10.847656 16.015625 10.871094 16.089844 10.886719 16.160156 10.90625 16.25 10.925781 16.339844 10.949219 16.429688 10.964844 16.507812 10.980469 16.585938 10.984375 16.660156 10.992188 16.722656 11 16.785156 11.011719 16.847656 11.015625 16.59375 11.347656 16.375 11.535156 16.371094 11.539062zM18.136719 4.300781C17.910156 4.234375 17.675781 4.1875 17.433594 4.167969 16.339844 4.082031 15.277344 4.519531 14.59375 5.347656 14.445312 5.523438 14.46875 5.789062 14.648438 5.9375 14.824219 6.082031 15.089844 6.058594 15.238281 5.882812 15.757812 5.253906 16.53125 4.9375 17.367188 5 17.992188 5.050781 18.550781 5.308594 18.964844 5.730469 18.980469 5.75 19 5.769531 19.015625 5.789062 19.054688 5.832031 19.09375 5.875 19.128906 5.917969 19.480469 6.375 19.679688 6.9375 19.679688 7.53125 19.679688 8.808594 18.769531 9.878906 17.5625 10.128906L17.558594 10.128906C17.542969 10.132812 17.53125 10.132812 17.515625 10.136719 17.441406 10.148438 17.367188 10.164062 17.292969 10.167969 17.207031 10.179688 17.117188 10.183594 17.027344 10.183594 15.78125 10.183594 14.714844 9.332031 14.441406 8.117188L14.277344 7.394531 13.742188 7.90625C13.246094 8.386719 12.59375 8.648438 11.910156 8.648438 11.222656 8.648438 10.570312 8.386719 10.074219 7.90625L9.539062 7.394531 9.375 8.117188C9.101562 9.332031 8.039062 10.183594 6.792969 10.183594 6.695312 10.183594 6.597656 10.175781 6.503906 10.167969 5.175781 10.023438 4.140625 8.894531 4.140625 7.53125 4.140625 6.757812 4.488281 6.03125 5.0625 5.53125 5.273438 6.054688 5.613281 6.527344 6.070312 6.894531 6.148438 6.957031 6.238281 6.988281 6.332031 6.988281 6.453125 6.988281 6.574219 6.933594 6.65625 6.832031 6.804688 6.648438 6.773438 6.386719 6.59375 6.242188 6.097656 5.84375 5.78125 5.285156 5.691406 4.675781 5.683594 4.605469 5.675781 4.535156 5.675781 4.460938 5.675781 3.015625 6.839844 1.835938 8.28125 1.8125 9.683594 1.835938 10.816406 2.945312 10.816406 4.3125 10.816406 4.804688 10.671875 5.277344 10.394531 5.683594 10.265625 5.875 10.316406 6.136719 10.507812 6.265625 10.699219 6.394531 10.960938 6.34375 11.089844 6.15625 11.457031 5.609375 11.65625 4.972656 11.65625 4.3125 11.65625 3.988281 11.605469 3.675781 11.515625 3.375 11.894531 3.320312 12.277344 3.34375 12.648438 3.453125 12.839844 3.507812 13.046875 3.421875 13.136719 3.242188 13.597656 2.359375 14.5 1.808594 15.492188 1.808594 15.671875 1.808594 15.851562 1.828125 16.019531 1.863281L15.695312 3.140625C15.640625 3.367188 15.777344 3.59375 16 3.652344 16.035156 3.660156 16.070312 3.664062 16.101562 3.664062 16.289062 3.664062 16.460938 3.539062 16.507812 3.347656L16.808594 2.164062C17.5625 2.597656 18.082031 3.386719 18.136719 4.300781zM18.136719 4.300781"/>
</svg>

<svg xmlns="http://www.w3.org/2000/svg" width="32" height="32" viewBox="0 0 24 24">
    <path d="M16.098 23.164H8.14a.418.418 0 0 0 0 .836h7.957a.418.418 0 0 0 0-.836zm0 0M20.324.836a.422.422 0 0 0 .371-.461.42.42 0 0 0-.465-.371l-3.554.39a.421.421 0 0 0-.36.313l-.086.344a3.533 3.533 0 0 0-.738-.078 3.47 3.47 0 0 0-2.93 1.597 3.334 3.334 0 0 0-1.304 0A3.47 3.47 0 0 0 8.328.973h-.09c-1.883 0-3.414 1.496-3.414 3.34 0 .109.008.218.02.328a3.492 3.492 0 0 0-1.54 2.89 3.491 3.491 0 0 0 2.891 3.434c.383.672.844 1.105.946 1.195 3.117 3.324 4.8 5.606 1.879 9.176a.856.856 0 0 0-.11.91.86.86 0 0 0 .785.496h4.684c.34 0 .64-.187.785-.496a.849.849 0 0 0-.11-.91c-2.917-3.57-1.238-5.852 1.883-9.176.102-.094.59-.555.981-1.262a3.491 3.491 0 0 0 2.598-3.367c0-.601-.16-1.18-.442-1.691-.008-.02-.012-.04-.02-.059a3.351 3.351 0 0 0-.167-.242c0-.004-.004-.008-.008-.012-.047-.066-.098-.125-.149-.187a3.473 3.473 0 0 0-.753-.7c.003-.062.003-.12.003-.18 0-1.374-.8-2.562-1.957-3.132l.032-.133zm-3.953 10.703l-.031.031c-2.719 2.899-5.531 5.895-1.934 10.297l-.027.04H9.695l-.027-.04c3.602-4.402.789-7.398-1.93-10.297l-.031-.03c-.004 0-.234-.2-.492-.544l.055-.012c.062-.007.125-.023.19-.035.099-.02.196-.039.29-.066.066-.016.129-.04.191-.063.09-.027.176-.062.262-.101.063-.028.125-.055.184-.086a4.845 4.845 0 0 0 .414-.246c.074-.055.148-.114.219-.172.05-.043.101-.082.148-.13.07-.065.137-.136.203-.206.043-.047.086-.094.125-.14.066-.083.129-.173.188-.262a1.58 1.58 0 0 0 .09-.133c.081-.137.16-.281.222-.43 1.129.742 2.7.742 3.828 0 .067.152.145.3.23.445.028.043.06.086.09.13.063.093.126.187.196.273.039.047.086.09.129.136.066.075.136.149.21.215.048.047.102.086.157.13.074.058.148.12.226.175.06.039.118.07.18.105.078.051.16.098.246.141.063.031.13.055.196.082.086.035.171.07.261.102.07.023.145.039.215.058.09.02.18.043.27.059.078.015.156.02.23.027.063.008.125.02.188.024-.254.332-.473.52-.477.523zm1.766-7.238a3.495 3.495 0 0 0-.703-.133 3.335 3.335 0 0 0-2.84 1.18.417.417 0 0 0 .054.59.424.424 0 0 0 .59-.055c.52-.63 1.293-.946 2.13-.883.624.05 1.183.309 1.597.73.015.02.035.04.05.06.04.042.079.085.114.128.351.457.55 1.02.55 1.613a2.66 2.66 0 0 1-2.116 2.598h-.004c-.016.004-.028.004-.043.008-.075.011-.149.027-.223.031a2.639 2.639 0 0 1-2.852-2.05l-.164-.723-.535.511a2.622 2.622 0 0 1-1.832.742c-.687 0-1.34-.261-1.836-.742l-.535-.511-.164.722a2.634 2.634 0 0 1-2.871 2.051A2.657 2.657 0 0 1 4.14 7.531c0-.773.347-1.5.921-2 .211.524.551.996 1.008 1.364a.414.414 0 0 0 .586-.063.417.417 0 0 0-.062-.59 2.468 2.468 0 0 1-.903-1.566c-.007-.07-.015-.14-.015-.215A2.652 2.652 0 0 1 8.28 1.812c1.403.024 2.535 1.133 2.535 2.5 0 .493-.144.965-.421 1.372a.42.42 0 0 0 .695.472 3.3 3.3 0 0 0 .566-1.843c0-.325-.05-.637-.14-.938a2.648 2.648 0 0 1 1.132.078.417.417 0 0 0 .489-.21 2.653 2.653 0 0 1 2.883-1.38l-.325 1.278a.425.425 0 0 0 .305.511.417.417 0 0 0 .508-.305l.3-1.183a2.648 2.648 0 0 1 1.329 2.137zm0 0"/>
</svg>
